wp-content/themes/hatch/dist/asset/img/app-icon-h360.svg

<?xml version="1.0" encoding="UTF-8"?>
<svg width="118px" height="121px" viewBox="0 0 118 121" version="1.1" xmlns="http://www.w3.org/2000/svg" xmlns:xlink="http://www.w3.org/1999/xlink">
    <!-- Generator: Sketch 52.2 (67145) - http://www.bohemiancoding.com/sketch -->
    <title>ICON</title>
    <desc>Created with Sketch.</desc>
    <defs>
        <linearGradient x1="100%" y1="0%" x2="37.2395833%" y2="74.3672521%" id="linearGradient-1">
            <stop stop-color="#09F3F3" offset="0%"></stop>
            <stop stop-color="#09F3F3" stop-opacity="0" offset="100%"></stop>
        </linearGradient>
        <path d="M33.3305076,-8.45201976e-15 L84.6694924,1.3465924e-15 C96.259236,-7.82408963e-16 100.461957,1.20673294 104.698994,3.47272515 C108.936031,5.73871735 112.261283,9.06396882 114.527275,13.3010059 C116.793267,17.5380429 118,21.740764 118,33.3305076 L118,84.6694924 C118,96.259236 116.793267,100.461957 114.527275,104.698994 C112.261283,108.936031 108.936031,112.261283 104.698994,114.527275 C100.461957,116.793267 96.259236,118 84.6694924,118 L33.3305076,118 C21.740764,118 17.5380429,116.793267 13.3010059,114.527275 C9.06396882,112.261283 5.73871735,108.936031 3.47272515,104.698994 C1.20673294,100.461957 -6.58382138e-15,96.259236 -8.00315562e-15,84.6694924 L8.97728267e-16,33.3305076 C-5.21605976e-16,21.740764 1.20673294,17.5380429 3.47272515,13.3010059 C5.73871735,9.06396882 9.06396882,5.73871735 13.3010059,3.47272515 C17.5380429,1.20673294 21.740764,-6.32301839e-15 33.3305076,-8.45201976e-15 Z" id="path-2"></path>
        <path d="M44.8467537,89.3288994 C42.9887642,87.1151369 41.4252278,84.5092951 40.1571275,81.5538373 C37.9553988,76.411369 37.1099518,71.4751317 36.9094372,68.458385 L34.467456,34.912099 C34.7147292,34.9021908 34.9547008,34.8975198 35.1904599,34.8975198 C44.3999488,34.8975198 44.9326885,42.2434178 44.9326885,42.2434178 L45.3106894,46.5577067 L57.1048224,46.1337797 L56.0692517,38.650017 C56.0692517,38.650017 55.3572002,32.3120604 53.3477015,28.8170334 C51.4159934,25.4571818 47.4872836,23.562037 42.4714702,23.562037 C40.4393645,23.562037 38.2280874,23.8734358 35.8999839,24.5244009 C31.5592924,25.7384316 27.7729649,29.4515793 26.479028,32.1753281 C21.0269409,43.6522143 31.4753234,46.8633022 31.4753234,46.8633022 C31.4753234,46.8633022 32.0910492,56.9691844 32.0504689,56.9691844 C14.847497,53.5211503 16.0167442,38.8133599 16.0167442,38.8133599 C15.8877016,33.2949483 21.5897298,20.5762886 37.046624,16.9756691 C39.9552088,16.2980936 42.571868,16 44.9399901,16 C51.0306909,16 55.4713587,17.9735607 58.9602844,20.5399116 C65.0113877,24.9910744 66.424819,34.2690604 66.424819,34.2690604 L74.2068349,71.9067022 C73.4504119,72.0152671 72.7262847,72.0652325 72.0327682,72.0652325 C68.5385067,72.0652325 65.8397039,70.7930268 63.9072938,69.3164302 C61.674533,67.6099648 60.1746052,65.1063183 59.6418655,62.3334535 L58.3098758,56.0870765 L46.1658251,56.4344277 L46.6040646,61.7187239 C46.7690538,64.0450146 47.0684216,66.1671975 47.4745057,68.1135816 C48.2845678,71.8775439 49.6272292,75.516239 51.9945089,78.7679503 C56.0172976,84.2934391 63.4395668,87.529722 70.6715718,87.5295804 C78.5163539,87.5292973 86.1370315,83.7210314 88.948729,74.8958476 C91.5288799,66.7970723 87.3697468,57.7624021 78.4103396,55.0965452 C77.4270037,54.8039718 74.937983,54.355416 74.937983,54.355416 L72.8588377,44.8543552 C82.2473574,45.1637724 92.7600507,50.3328511 97.9973007,58.8838624 C102.450887,66.1553077 103.105929,75.1803529 100.37118,83.1511716 C96.3840569,94.783191 84.4379933,101.6225 72.255609,101.985421 C71.9297026,101.995187 71.6043578,102 71.2795747,102 C61.0468718,102 51.4583991,97.2058738 44.8467537,89.3288994 Z" id="path-3"></path>
        <filter x="-19.2%" y="-11.0%" width="138.4%" height="144.2%" filterUnits="objectBoundingBox" id="filter-4">
            <feOffset dx="0" dy="12" in="SourceAlpha" result="shadowOffsetOuter1"></feOffset>
            <feGaussianBlur stdDeviation="3.5" in="shadowOffsetOuter1" result="shadowBlurOuter1"></feGaussianBlur>
            <feColorMatrix values="0 0 0 0 0   0 0 0 0 0   0 0 0 0 0  0 0 0 0.09 0" type="matrix" in="shadowBlurOuter1"></feColorMatrix>
        </filter>
    </defs>
    <g id="Invite-Landing" stroke="none" stroke-width="1" fill="none" fill-rule="evenodd">
        <g id="Artboard" transform="translate(-781.000000, -105.000000)">
            <g id="ICON" transform="translate(781.000000, 105.000000)">
                <g id="Rectangle">
                    <use fill="#3060BF" xlink:href="#path-2"></use>
                    <use fill-opacity="0.390000015" fill="url(#linearGradient-1)" xlink:href="#path-2"></use>
                </g>
                <g id="Fill-1">
                    <use fill="black" fill-opacity="1" filter="url(#filter-4)" xlink:href="#path-3"></use>
                    <use fill="#FFFFFF" fill-rule="evenodd" xlink:href="#path-3"></use>
                </g>
            </g>
        </g>
    </g>
</svg>

<svg width="118" height="121" xmlns="http://www.w3.org/2000/svg" xmlns:xlink="http://www.w3.org/1999/xlink"><defs><path d="M33.33 0h51.34c11.59 0 15.792 1.207 20.029 3.473s7.562 5.591 9.828 9.828c2.266 4.237 3.473 8.44 3.473 20.03v51.338c0 11.59-1.207 15.793-3.473 20.03-2.266 4.237-5.591 7.562-9.828 9.828-4.237 2.266-8.44 3.473-20.03 3.473H33.331c-11.59 0-15.793-1.207-20.03-3.473-4.237-2.266-7.562-5.591-9.828-9.828C1.207 100.462 0 96.259 0 84.669V33.331C0 21.74 1.207 17.538 3.473 13.3 5.739 9.064 9.064 5.739 13.3 3.473 17.538 1.207 21.741 0 33.331 0z" id="a"/><path d="M44.847 89.329c-1.858-2.214-3.422-4.82-4.69-7.775-2.202-5.143-3.047-10.079-3.248-13.096l-2.442-33.546c.248-.01.488-.014.723-.014 9.21 0 9.743 7.345 9.743 7.345l.378 4.315 11.794-.424-1.036-7.484s-.712-6.338-2.721-9.833c-1.932-3.36-5.86-5.255-10.877-5.255-2.032 0-4.243.311-6.571.962-4.34 1.214-8.127 4.928-9.421 7.651-5.452 11.477 4.996 14.688 4.996 14.688s.616 10.106.575 10.106c-17.203-3.448-16.033-18.156-16.033-18.156-.13-5.518 5.573-18.237 21.03-21.837 2.908-.678 5.525-.976 7.893-.976 6.09 0 10.531 1.974 14.02 4.54 6.051 4.451 7.465 13.73 7.465 13.73l7.782 37.637c-.757.108-1.48.158-2.174.158-3.494 0-6.193-1.272-8.126-2.749-2.232-1.706-3.732-4.21-4.265-6.983l-1.332-6.246-12.144.347.438 5.285c.165 2.326.464 4.448.87 6.395.81 3.764 2.153 7.402 4.52 10.654 4.023 5.525 11.446 8.762 18.678 8.762 7.844 0 15.465-3.809 18.277-12.634 2.58-8.099-1.58-17.134-10.539-19.8-.983-.292-3.472-.74-3.472-.74l-2.08-9.502c9.39.31 19.902 5.479 25.14 14.03 4.453 7.271 5.108 16.296 2.373 24.267-3.987 11.632-15.933 18.472-28.115 18.834-.326.01-.652.015-.976.015-10.233 0-19.822-4.794-26.433-12.671z" id="d"/><linearGradient x1="100%" y1="0%" x2="37.24%" y2="74.367%" id="b"><stop stop-color="#09F3F3" offset="0%"/><stop stop-color="#09F3F3" stop-opacity="0" offset="100%"/></linearGradient><filter x="-19.2%" y="-11%" width="138.4%" height="144.2%" filterUnits="objectBoundingBox" id="c"><feOffset dy="12" in="SourceAlpha" result="shadowOffsetOuter1"/><feGaussianBlur stdDeviation="3.5" in="shadowOffsetOuter1" result="shadowBlurOuter1"/><feColorMatrix values="0 0 0 0 0 0 0 0 0 0 0 0 0 0 0 0 0 0 0.09 0" in="shadowBlurOuter1"/></filter></defs><g fill="none" fill-rule="evenodd"><use fill="#3060BF" xlink:href="#a"/><use fill-opacity=".39" fill="url(#b)" xlink:href="#a"/><use fill="#000" filter="url(#c)" xlink:href="#d"/><use fill="#FFF" xlink:href="#d"/></g></svg>
